X:1
T:Title
%%score { 1 | 2 }
L:1/8
M:3/4
K:G
V:1 treble nm="Grand Piano"
V:2 bass 
V:1
 z2 z2[Q:1/4=84] DG | G3 B AG | G2 F2 FG | [FA]3 [=F^G] [^FA]_B |[M:2/4] B4 |[M:1/4] Bc | %6
[M:3/4] d3 G AB | [Ec]2 E2 FG | D3 B BA |[M:2/4] [B,DG]4 |] %10
V:2
 z2 z2 [G,B,][G,B,D] | [G,B,D]3 [G,D] [F,CD][G,B,D] | [D,B,D]2 [D,A,D]2 [D,A,D][D,B,D] | %3
 [D,C]3 [D,B,] [D,C][K:treble][G,^CE] |[M:2/4] [G,D]4 |[M:1/4] [G,DG][A,DG] | %6
[M:3/4] [B,DG]3 [B,D] [A,DF][G,=F] | [C,G,]2 [C,G,C]2 [C,E,C][C,E,C] | %8
 [D,G,B,]3 [D,G,D] [D,G,D][D,CD] |[M:2/4] [G,,G,]4 |] %10

